X: 1663
T: Clark's Hornpipe
R: hornpipe, reel
%S: s:3 b:14(6+4+4)
B: O'Neill's 1850 #1663
Z: Compacted via repeats and multiple endings [JC]
M: 2/4
L: 1/16
K: D
(3ABc |: d2AG FDFA | BGBd cAce |1,3 fdge afed | c2e2 egfe :|2,4 dbag fgec | d2f2 d2 :: (3efg | a2fd Adfa |
| g2ec Aceg | fafd Bged | cedB Agfe || d2AG FDFA | BGBd cAce | dbag fgec | d2f2 d2 :|
